X: 7941
T: Condon's Frolics
R: jig
M: 6/8
K: Adorian
|:eAB ccd|edc BAG|eAB ccd|eed eag|
eAB ccd|1 edc BAB|GBd gdB|ABA A3:|
[2 gdc BAB|GBd gdB|ABA A3||
|:eaa dgg|dec BAG|cBc dcd|eed efg|
eaa dgg|dec BAB|GBd gdB|ABA A3:|

